X:5
T:Shanti Shakti Shashwati / शांति शक्ति शाश्वती
M:4/4
L:1/8
Q:1/4=72
K:G
|: G2 bd b2 DG | A2 c'd' c'2 DA | B2 d'e' d'2 GB | A2 fg f2 DA :|
| G,B,DG Bdgb | A,CEA ceac' | B,DGB dgbd' | D,A,DF Adfa |
